( Generated by Carbide Copper )
( Material Size )
( X= 152.400, Y= 101.600, Z= 1.580 )
()
G17
G21
G54
G90
M05
( Routing )
M03 S10000
G0  X24.607 Y36.194
G0  Z3.000
G01 F200 Z0
G01 F200 Z-0.790
X24.607 Y24.607
X66.194 Y24.607
X66.194 Y36.194
X24.607 Y36.194
G0 Z3.000
M03 S10000
G0  X24.607 Y36.194
G0  Z3.000
G01 F200 Z0
G01 F200 Z-1.580
X24.607 Y24.607
X66.194 Y24.607
X66.194 Y36.194
X24.607 Y36.194
G0 Z3.000
G00 Z3.000
M05
M30