( Generated by Carbide Copper )
( Material Size )
( X= 152.400, Y= 101.600, Z= 1.580 )
()
G17
G21
G54
G90
M05
( Drilling )
M03 S10000
G00 X62.738 Y30.480
G0  Z3.000
G01 F240.0 Z-1.780
G00 Z3.000
G00 X60.833 Y30.480
G0  Z3.000
G01 F240.0 Z-1.780
G00 Z3.000
G00 X58.928 Y30.480
G0  Z3.000
G01 F240.0 Z-1.780
G00 Z3.000
G00 X53.340 Y30.480
G0  Z3.000
G01 F240.0 Z-1.780
G00 Z3.000
G00 X51.308 Y30.480
G0  Z3.000
G01 F240.0 Z-1.780
G00 Z3.000
G00 X49.403 Y30.480
G0  Z3.000
G01 F240.0 Z-1.780
G00 Z3.000
G00 X47.498 Y30.480
G0  Z3.000
G01 F240.0 Z-1.780
G00 Z3.000
G00 X45.593 Y30.480
G0  Z3.000
G01 F240.0 Z-1.780
G00 Z3.000
G00 X43.688 Y30.480
G0  Z3.000
G01 F240.0 Z-1.780
G00 Z3.000
G00 X41.910 Y30.480
G0  Z3.000
G01 F240.0 Z-1.780
G00 Z3.000
G00 X39.878 Y30.480
G0  Z3.000
G01 F240.0 Z-1.780
G00 Z3.000
G00 X37.973 Y30.480
G0  Z3.000
G01 F240.0 Z-1.780
G00 Z3.000
G00 X36.068 Y30.480
G0  Z3.000
G01 F240.0 Z-1.780
G00 Z3.000
G00 X34.163 Y30.480
G0  Z3.000
G01 F240.0 Z-1.780
G00 Z3.000
G00 X32.258 Y30.480
G0  Z3.000
G01 F240.0 Z-1.780
G00 Z3.000
G00 X30.480 Y30.480
G0  Z3.000
G01 F240.0 Z-1.780
G00 Z3.000
M05
M30