( Generated by Carbide Copper )
( Material Size )
( X= 152.400, Y= 101.600, Z= 1.580 )
()
G17
G21
G54
G90
M05
(  )
( Contour )
M03 S10000
G0  X52.497 Y33.282
G0  Z3.000
G01 F400 Z0
G01 F400 Z-0.100
G01F400X52.339 Y33.249
X52.191 Y33.183
X52.062 Y33.090
X50.783 Y31.811
X50.681 Y31.697
X50.600 Y31.557
X50.550 Y31.403
X50.534 Y31.248
X50.534 Y30.474
X50.550 Y30.319
X50.600 Y30.165
X50.681 Y30.025
X50.790 Y29.904
X50.921 Y29.809
X51.069 Y29.743
X51.227 Y29.710
X51.389 Y29.710
X51.547 Y29.743
X51.695 Y29.809
X51.826 Y29.904
X51.935 Y30.025
X52.016 Y30.165
X52.066 Y30.319
X52.082 Y30.474
X52.082 Y30.923
X53.103 Y31.944
X53.205 Y32.057
X53.286 Y32.197
X53.336 Y32.351
X53.353 Y32.512
X53.336 Y32.673
X53.286 Y32.827
X53.205 Y32.967
X53.096 Y33.088
X52.965 Y33.183
X52.817 Y33.249
X52.659 Y33.282
X52.497 Y33.282
G0 Z3.000
G0  X50.084 Y33.282
G0  Z3.000
G01 F400 Z0
G01 F400 Z-0.100
G01F400X49.926 Y33.249
X49.778 Y33.183
X49.649 Y33.090
X48.878 Y32.319
X48.776 Y32.205
X48.695 Y32.065
X48.645 Y31.911
X48.629 Y31.757
X48.629 Y30.474
X48.645 Y30.319
X48.695 Y30.165
X48.776 Y30.025
X48.885 Y29.904
X49.016 Y29.809
X49.164 Y29.743
X49.322 Y29.710
X49.484 Y29.710
X49.642 Y29.743
X49.790 Y29.809
X49.921 Y29.904
X50.030 Y30.025
X50.111 Y30.165
X50.161 Y30.319
X50.177 Y30.474
X50.177 Y31.431
X50.690 Y31.944
X50.792 Y32.057
X50.873 Y32.197
X50.923 Y32.351
X50.940 Y32.512
X50.923 Y32.673
X50.873 Y32.827
X50.792 Y32.967
X50.683 Y33.088
X50.552 Y33.183
X50.404 Y33.249
X50.246 Y33.282
X50.084 Y33.282
G0 Z3.000
G0  X55.037 Y33.156
G0  Z3.000
G01 F400 Z0
G01 F400 Z-0.100
G01F400X54.879 Y33.122
X54.731 Y33.056
X54.600 Y32.961
X54.491 Y32.840
X54.410 Y32.700
X54.383 Y32.616
X52.815 Y31.049
X52.713 Y30.935
X52.632 Y30.795
X52.582 Y30.641
X52.565 Y30.480
X52.582 Y30.319
X52.632 Y30.165
X52.713 Y30.025
X52.822 Y29.904
X52.953 Y29.809
X53.101 Y29.743
X53.259 Y29.710
X53.421 Y29.710
X53.579 Y29.743
X53.727 Y29.809
X53.856 Y29.902
X55.643 Y31.690
X55.745 Y31.803
X55.826 Y31.943
X55.876 Y32.097
X55.892 Y32.252
X55.892 Y32.392
X55.876 Y32.546
X55.826 Y32.700
X55.745 Y32.840
X55.636 Y32.961
X55.505 Y33.056
X55.357 Y33.122
X55.199 Y33.156
X55.037 Y33.156
G0 Z3.000
G0  X60.752 Y33.156
G0  Z3.000
G01 F400 Z0
G01 F400 Z-0.100
G01F400X60.594 Y33.122
X60.446 Y33.056
X60.315 Y32.961
X60.206 Y32.840
X60.125 Y32.700
X60.075 Y32.546
X60.059 Y32.392
X60.059 Y30.474
X60.075 Y30.319
X60.125 Y30.165
X60.206 Y30.025
X60.315 Y29.904
X60.446 Y29.809
X60.594 Y29.743
X60.752 Y29.710
X60.914 Y29.710
X61.072 Y29.743
X61.220 Y29.809
X61.351 Y29.904
X61.460 Y30.025
X61.541 Y30.165
X61.591 Y30.319
X61.607 Y30.474
X61.607 Y32.392
X61.591 Y32.546
X61.541 Y32.700
X61.460 Y32.840
X61.351 Y32.961
X61.220 Y33.056
X61.072 Y33.122
X60.914 Y33.156
X60.752 Y33.156
G0 Z3.000
G0  X62.657 Y33.156
G0  Z3.000
G01 F400 Z0
G01 F400 Z-0.100
G01F400X62.499 Y33.122
X62.351 Y33.056
X62.220 Y32.961
X62.111 Y32.840
X62.030 Y32.700
X61.980 Y32.546
X61.964 Y32.392
X61.964 Y30.474
X61.980 Y30.319
X62.030 Y30.165
X62.111 Y30.025
X62.220 Y29.904
X62.351 Y29.809
X62.499 Y29.743
X62.657 Y29.710
X62.819 Y29.710
X62.977 Y29.743
X63.125 Y29.809
X63.256 Y29.904
X63.365 Y30.025
X63.446 Y30.165
X63.496 Y30.319
X63.512 Y30.474
X63.512 Y32.392
X63.496 Y32.546
X63.446 Y32.700
X63.365 Y32.840
X63.256 Y32.961
X63.125 Y33.056
X62.977 Y33.122
X62.819 Y33.156
X62.657 Y33.156
G0 Z3.000
G0  X58.847 Y33.156
G0  Z3.000
G01 F400 Z0
G01 F400 Z-0.100
G01F400X58.689 Y33.122
X58.541 Y33.056
X58.410 Y32.961
X58.301 Y32.840
X58.220 Y32.700
X58.170 Y32.546
X58.154 Y32.392
X58.154 Y30.474
X58.170 Y30.319
X58.220 Y30.165
X58.301 Y30.025
X58.410 Y29.904
X58.541 Y29.809
X58.689 Y29.743
X58.847 Y29.710
X59.009 Y29.710
X59.167 Y29.743
X59.315 Y29.809
X59.446 Y29.904
X59.555 Y30.025
X59.636 Y30.165
X59.686 Y30.319
X59.702 Y30.474
X59.702 Y32.392
X59.686 Y32.546
X59.636 Y32.700
X59.555 Y32.840
X59.446 Y32.961
X59.315 Y33.056
X59.167 Y33.122
X59.009 Y33.156
X58.847 Y33.156
G0 Z3.000
G0  X47.417 Y31.251
G0  Z3.000
G01 F400 Z0
G01 F400 Z-0.100
G01F400X47.259 Y31.217
X47.111 Y31.151
X46.980 Y31.056
X46.871 Y30.935
X46.790 Y30.795
X46.740 Y30.641
X46.723 Y30.480
X46.740 Y30.319
X46.790 Y30.165
X46.871 Y30.025
X46.980 Y29.904
X47.111 Y29.809
X47.259 Y29.743
X47.417 Y29.710
X47.579 Y29.710
X47.737 Y29.743
X47.885 Y29.809
X48.016 Y29.904
X48.125 Y30.025
X48.206 Y30.165
X48.256 Y30.319
X48.273 Y30.480
X48.256 Y30.641
X48.206 Y30.795
X48.125 Y30.935
X48.016 Y31.056
X47.885 Y31.151
X47.737 Y31.217
X47.579 Y31.251
X47.417 Y31.251
G0 Z3.000
G0  X30.399 Y31.251
G0  Z3.000
G01 F400 Z0
G01 F400 Z-0.100
G01F400X30.241 Y31.217
X30.093 Y31.151
X29.962 Y31.056
X29.853 Y30.935
X29.772 Y30.795
X29.722 Y30.641
X29.705 Y30.480
X29.722 Y30.319
X29.772 Y30.165
X29.853 Y30.025
X29.962 Y29.904
X30.093 Y29.809
X30.241 Y29.743
X30.399 Y29.710
X30.561 Y29.710
X30.719 Y29.743
X30.867 Y29.809
X30.998 Y29.904
X31.107 Y30.025
X31.188 Y30.165
X31.238 Y30.319
X31.255 Y30.480
X31.238 Y30.641
X31.188 Y30.795
X31.107 Y30.935
X30.998 Y31.056
X30.867 Y31.151
X30.719 Y31.217
X30.561 Y31.251
X30.399 Y31.251
G0 Z3.000
G0  X41.829 Y31.251
G0  Z3.000
G01 F400 Z0
G01 F400 Z-0.100
G01F400X41.671 Y31.217
X41.523 Y31.151
X41.392 Y31.056
X41.283 Y30.935
X41.202 Y30.795
X41.152 Y30.641
X41.135 Y30.480
X41.152 Y30.319
X41.202 Y30.165
X41.283 Y30.025
X41.392 Y29.904
X41.523 Y29.809
X41.671 Y29.743
X41.829 Y29.710
X41.991 Y29.710
X42.149 Y29.743
X42.297 Y29.809
X42.428 Y29.904
X42.537 Y30.025
X42.618 Y30.165
X42.668 Y30.319
X42.685 Y30.480
X42.668 Y30.641
X42.618 Y30.795
X42.537 Y30.935
X42.428 Y31.056
X42.297 Y31.151
X42.149 Y31.217
X41.991 Y31.251
X41.829 Y31.251
G0 Z3.000
G0  X39.797 Y31.251
G0  Z3.000
G01 F400 Z0
G01 F400 Z-0.100
G01F400X39.639 Y31.217
X39.491 Y31.151
X39.360 Y31.056
X39.251 Y30.935
X39.170 Y30.795
X39.120 Y30.641
X39.103 Y30.480
X39.120 Y30.319
X39.170 Y30.165
X39.251 Y30.025
X39.360 Y29.904
X39.491 Y29.809
X39.639 Y29.743
X39.797 Y29.710
X39.959 Y29.710
X40.117 Y29.743
X40.265 Y29.809
X40.396 Y29.904
X40.505 Y30.025
X40.586 Y30.165
X40.636 Y30.319
X40.653 Y30.480
X40.636 Y30.641
X40.586 Y30.795
X40.505 Y30.935
X40.396 Y31.056
X40.265 Y31.151
X40.117 Y31.217
X39.959 Y31.251
X39.797 Y31.251
G0 Z3.000
G0  X45.512 Y31.251
G0  Z3.000
G01 F400 Z0
G01 F400 Z-0.100
G01F400X45.354 Y31.217
X45.206 Y31.151
X45.075 Y31.056
X44.966 Y30.935
X44.885 Y30.795
X44.835 Y30.641
X44.818 Y30.480
X44.835 Y30.319
X44.885 Y30.165
X44.966 Y30.025
X45.075 Y29.904
X45.206 Y29.809
X45.354 Y29.743
X45.512 Y29.710
X45.674 Y29.710
X45.832 Y29.743
X45.980 Y29.809
X46.111 Y29.904
X46.220 Y30.025
X46.301 Y30.165
X46.351 Y30.319
X46.368 Y30.480
X46.351 Y30.641
X46.301 Y30.795
X46.220 Y30.935
X46.111 Y31.056
X45.980 Y31.151
X45.832 Y31.217
X45.674 Y31.251
X45.512 Y31.251
G0 Z3.000
G0  X43.607 Y31.251
G0  Z3.000
G01 F400 Z0
G01 F400 Z-0.100
G01F400X43.449 Y31.217
X43.301 Y31.151
X43.170 Y31.056
X43.061 Y30.935
X42.980 Y30.795
X42.930 Y30.641
X42.913 Y30.480
X42.930 Y30.319
X42.980 Y30.165
X43.061 Y30.025
X43.170 Y29.904
X43.301 Y29.809
X43.449 Y29.743
X43.607 Y29.710
X43.769 Y29.710
X43.927 Y29.743
X44.075 Y29.809
X44.206 Y29.904
X44.315 Y30.025
X44.396 Y30.165
X44.446 Y30.319
X44.463 Y30.480
X44.446 Y30.641
X44.396 Y30.795
X44.315 Y30.935
X44.206 Y31.056
X44.075 Y31.151
X43.927 Y31.217
X43.769 Y31.251
X43.607 Y31.251
G0 Z3.000
G0  X34.082 Y31.251
G0  Z3.000
G01 F400 Z0
G01 F400 Z-0.100
G01F400X33.924 Y31.217
X33.776 Y31.151
X33.645 Y31.056
X33.536 Y30.935
X33.455 Y30.795
X33.405 Y30.641
X33.388 Y30.480
X33.405 Y30.319
X33.455 Y30.165
X33.536 Y30.025
X33.645 Y29.904
X33.776 Y29.809
X33.924 Y29.743
X34.082 Y29.710
X34.244 Y29.710
X34.402 Y29.743
X34.550 Y29.809
X34.681 Y29.904
X34.790 Y30.025
X34.871 Y30.165
X34.921 Y30.319
X34.938 Y30.480
X34.921 Y30.641
X34.871 Y30.795
X34.790 Y30.935
X34.681 Y31.056
X34.550 Y31.151
X34.402 Y31.217
X34.244 Y31.251
X34.082 Y31.251
G0 Z3.000
G0  X32.177 Y31.251
G0  Z3.000
G01 F400 Z0
G01 F400 Z-0.100
G01F400X32.019 Y31.217
X31.871 Y31.151
X31.740 Y31.056
X31.631 Y30.935
X31.550 Y30.795
X31.500 Y30.641
X31.483 Y30.480
X31.500 Y30.319
X31.550 Y30.165
X31.631 Y30.025
X31.740 Y29.904
X31.871 Y29.809
X32.019 Y29.743
X32.177 Y29.710
X32.339 Y29.710
X32.497 Y29.743
X32.645 Y29.809
X32.776 Y29.904
X32.885 Y30.025
X32.966 Y30.165
X33.016 Y30.319
X33.033 Y30.480
X33.016 Y30.641
X32.966 Y30.795
X32.885 Y30.935
X32.776 Y31.056
X32.645 Y31.151
X32.497 Y31.217
X32.339 Y31.251
X32.177 Y31.251
G0 Z3.000
G0  X37.892 Y31.251
G0  Z3.000
G01 F400 Z0
G01 F400 Z-0.100
G01F400X37.734 Y31.217
X37.586 Y31.151
X37.455 Y31.056
X37.346 Y30.935
X37.265 Y30.795
X37.215 Y30.641
X37.198 Y30.480
X37.215 Y30.319
X37.265 Y30.165
X37.346 Y30.025
X37.455 Y29.904
X37.586 Y29.809
X37.734 Y29.743
X37.892 Y29.710
X38.054 Y29.710
X38.212 Y29.743
X38.360 Y29.809
X38.491 Y29.904
X38.600 Y30.025
X38.681 Y30.165
X38.731 Y30.319
X38.748 Y30.480
X38.731 Y30.641
X38.681 Y30.795
X38.600 Y30.935
X38.491 Y31.056
X38.360 Y31.151
X38.212 Y31.217
X38.054 Y31.251
X37.892 Y31.251
G0 Z3.000
G0  X35.987 Y31.251
G0  Z3.000
G01 F400 Z0
G01 F400 Z-0.100
G01F400X35.829 Y31.217
X35.681 Y31.151
X35.550 Y31.056
X35.441 Y30.935
X35.360 Y30.795
X35.310 Y30.641
X35.293 Y30.480
X35.310 Y30.319
X35.360 Y30.165
X35.441 Y30.025
X35.550 Y29.904
X35.681 Y29.809
X35.829 Y29.743
X35.987 Y29.710
X36.149 Y29.710
X36.307 Y29.743
X36.455 Y29.809
X36.586 Y29.904
X36.695 Y30.025
X36.776 Y30.165
X36.826 Y30.319
X36.843 Y30.480
X36.826 Y30.641
X36.776 Y30.795
X36.695 Y30.935
X36.586 Y31.056
X36.455 Y31.151
X36.307 Y31.217
X36.149 Y31.251
X35.987 Y31.251
G0 Z3.000
G0  X50.061 Y33.506
G0  Z3.000
G01 F400 Z0
G01 F400 Z-0.100
G01F400X49.856 Y33.462
X49.665 Y33.378
X49.504 Y33.260
X48.716 Y32.472
X48.595 Y32.337
X48.490 Y32.156
X48.425 Y31.958
X48.406 Y31.768
X48.406 Y30.896
X48.306 Y31.067
X48.167 Y31.223
X47.998 Y31.346
X47.807 Y31.431
X47.602 Y31.474
X47.394 Y31.474
X47.189 Y31.431
X46.998 Y31.346
X46.829 Y31.223
X46.690 Y31.067
X46.585 Y30.886
X46.546 Y30.765
X46.506 Y30.886
X46.402 Y31.067
X46.262 Y31.223
X46.093 Y31.346
X45.902 Y31.431
X45.697 Y31.474
X45.489 Y31.474
X45.284 Y31.431
X45.093 Y31.346
X44.924 Y31.223
X44.785 Y31.067
X44.680 Y30.886
X44.641 Y30.765
X44.601 Y30.886
X44.497 Y31.067
X44.357 Y31.223
X44.188 Y31.346
X43.997 Y31.431
X43.792 Y31.474
X43.584 Y31.474
X43.379 Y31.431
X43.188 Y31.346
X43.019 Y31.223
X42.880 Y31.067
X42.799 Y30.928
X42.718 Y31.067
X42.579 Y31.223
X42.410 Y31.346
X42.219 Y31.431
X42.014 Y31.474
X41.806 Y31.474
X41.601 Y31.431
X41.410 Y31.346
X41.241 Y31.223
X41.102 Y31.067
X40.997 Y30.886
X40.933 Y30.688
X40.911 Y30.480
X40.933 Y30.272
X40.997 Y30.074
X41.102 Y29.893
X41.241 Y29.737
X41.410 Y29.615
X41.601 Y29.530
X41.806 Y29.486
X42.014 Y29.486
X42.219 Y29.530
X42.410 Y29.615
X42.579 Y29.737
X42.718 Y29.893
X42.799 Y30.032
X42.880 Y29.893
X43.019 Y29.737
X43.188 Y29.615
X43.379 Y29.530
X43.584 Y29.486
X43.792 Y29.486
X43.997 Y29.530
X44.188 Y29.615
X44.357 Y29.737
X44.497 Y29.893
X44.601 Y30.074
X44.641 Y30.195
X44.680 Y30.074
X44.785 Y29.893
X44.924 Y29.737
X45.093 Y29.615
X45.284 Y29.530
X45.489 Y29.486
X45.697 Y29.486
X45.902 Y29.530
X46.093 Y29.615
X46.262 Y29.737
X46.402 Y29.893
X46.506 Y30.074
X46.546 Y30.195
X46.585 Y30.074
X46.690 Y29.893
X46.829 Y29.737
X46.998 Y29.615
X47.189 Y29.530
X47.394 Y29.486
X47.602 Y29.486
X47.807 Y29.530
X47.998 Y29.615
X48.167 Y29.737
X48.306 Y29.893
X48.411 Y30.074
X48.451 Y30.195
X48.490 Y30.074
X48.595 Y29.893
X48.734 Y29.737
X48.903 Y29.615
X49.094 Y29.530
X49.299 Y29.486
X49.507 Y29.486
X49.712 Y29.530
X49.903 Y29.615
X50.072 Y29.737
X50.212 Y29.893
X50.316 Y30.074
X50.355 Y30.195
X50.395 Y30.074
X50.500 Y29.893
X50.639 Y29.737
X50.808 Y29.615
X50.999 Y29.530
X51.204 Y29.486
X51.412 Y29.486
X51.617 Y29.530
X51.808 Y29.615
X51.977 Y29.737
X52.117 Y29.893
X52.221 Y30.074
X52.285 Y30.272
X52.306 Y30.462
X52.306 Y30.830
X52.516 Y31.041
X52.427 Y30.886
X52.363 Y30.688
X52.341 Y30.480
X52.363 Y30.272
X52.427 Y30.074
X52.532 Y29.893
X52.671 Y29.737
X52.840 Y29.615
X53.031 Y29.530
X53.236 Y29.486
X53.444 Y29.486
X53.649 Y29.530
X53.840 Y29.615
X54.001 Y29.732
X55.805 Y31.536
X55.927 Y31.671
X56.031 Y31.852
X56.096 Y32.050
X56.116 Y32.240
X56.116 Y32.403
X56.096 Y32.593
X56.031 Y32.791
X55.927 Y32.972
X55.787 Y33.128
X55.618 Y33.251
X55.427 Y33.336
X55.222 Y33.379
X55.014 Y33.379
X54.809 Y33.336
X54.618 Y33.251
X54.449 Y33.128
X54.309 Y32.972
X54.205 Y32.791
X54.187 Y32.736
X53.402 Y31.951
X53.491 Y32.106
X53.556 Y32.304
X53.577 Y32.512
X53.556 Y32.720
X53.491 Y32.918
X53.387 Y33.099
X53.247 Y33.255
X53.078 Y33.378
X52.887 Y33.462
X52.682 Y33.506
X52.474 Y33.506
X52.269 Y33.462
X52.078 Y33.378
X51.917 Y33.260
X51.164 Y32.507
X51.164 Y32.512
X51.143 Y32.720
X51.078 Y32.918
X50.974 Y33.099
X50.834 Y33.255
X50.665 Y33.378
X50.474 Y33.462
X50.269 Y33.506
X50.061 Y33.506
G0 Z3.000
G0  X58.824 Y33.379
G0  Z3.000
G01 F400 Z0
G01 F400 Z-0.100
G01F400X58.619 Y33.336
X58.428 Y33.251
X58.259 Y33.128
X58.120 Y32.972
X58.015 Y32.791
X57.951 Y32.593
X57.931 Y32.403
X57.931 Y30.462
X57.951 Y30.272
X58.015 Y30.074
X58.120 Y29.893
X58.259 Y29.737
X58.428 Y29.615
X58.619 Y29.530
X58.824 Y29.486
X59.032 Y29.486
X59.237 Y29.530
X59.428 Y29.615
X59.597 Y29.737
X59.736 Y29.893
X59.841 Y30.074
X59.881 Y30.195
X59.920 Y30.074
X60.025 Y29.893
X60.164 Y29.737
X60.333 Y29.615
X60.524 Y29.530
X60.729 Y29.486
X60.937 Y29.486
X61.142 Y29.530
X61.333 Y29.615
X61.502 Y29.737
X61.642 Y29.893
X61.746 Y30.074
X61.786 Y30.195
X61.825 Y30.074
X61.930 Y29.893
X62.069 Y29.737
X62.238 Y29.615
X62.429 Y29.530
X62.634 Y29.486
X62.842 Y29.486
X63.047 Y29.530
X63.238 Y29.615
X63.407 Y29.737
X63.547 Y29.893
X63.651 Y30.074
X63.716 Y30.272
X63.736 Y30.462
X63.736 Y32.403
X63.716 Y32.593
X63.651 Y32.791
X63.547 Y32.972
X63.407 Y33.128
X63.238 Y33.251
X63.047 Y33.336
X62.842 Y33.379
X62.634 Y33.379
X62.429 Y33.336
X62.238 Y33.251
X62.069 Y33.128
X61.930 Y32.972
X61.825 Y32.791
X61.786 Y32.670
X61.746 Y32.791
X61.642 Y32.972
X61.502 Y33.128
X61.333 Y33.251
X61.142 Y33.336
X60.937 Y33.379
X60.729 Y33.379
X60.524 Y33.336
X60.333 Y33.251
X60.164 Y33.128
X60.025 Y32.972
X59.920 Y32.791
X59.881 Y32.670
X59.841 Y32.791
X59.736 Y32.972
X59.597 Y33.128
X59.428 Y33.251
X59.237 Y33.336
X59.032 Y33.379
X58.824 Y33.379
G0 Z3.000
G0  X30.376 Y31.474
G0  Z3.000
G01 F400 Z0
G01 F400 Z-0.100
G01F400X30.171 Y31.431
X29.980 Y31.346
X29.811 Y31.223
X29.672 Y31.067
X29.567 Y30.886
X29.503 Y30.688
X29.481 Y30.480
X29.503 Y30.272
X29.567 Y30.074
X29.672 Y29.893
X29.811 Y29.737
X29.980 Y29.615
X30.171 Y29.530
X30.376 Y29.486
X30.584 Y29.486
X30.789 Y29.530
X30.980 Y29.615
X31.149 Y29.737
X31.289 Y29.893
X31.369 Y30.032
X31.450 Y29.893
X31.589 Y29.737
X31.758 Y29.615
X31.949 Y29.530
X32.154 Y29.486
X32.362 Y29.486
X32.567 Y29.530
X32.758 Y29.615
X32.927 Y29.737
X33.067 Y29.893
X33.171 Y30.074
X33.211 Y30.195
X33.250 Y30.074
X33.355 Y29.893
X33.494 Y29.737
X33.663 Y29.615
X33.854 Y29.530
X34.059 Y29.486
X34.267 Y29.486
X34.472 Y29.530
X34.663 Y29.615
X34.832 Y29.737
X34.971 Y29.893
X35.076 Y30.074
X35.116 Y30.195
X35.155 Y30.074
X35.260 Y29.893
X35.399 Y29.737
X35.568 Y29.615
X35.759 Y29.530
X35.964 Y29.486
X36.172 Y29.486
X36.377 Y29.530
X36.568 Y29.615
X36.737 Y29.737
X36.877 Y29.893
X36.981 Y30.074
X37.020 Y30.195
X37.060 Y30.074
X37.165 Y29.893
X37.304 Y29.737
X37.473 Y29.615
X37.664 Y29.530
X37.869 Y29.486
X38.077 Y29.486
X38.282 Y29.530
X38.473 Y29.615
X38.642 Y29.737
X38.782 Y29.893
X38.886 Y30.074
X38.925 Y30.195
X38.965 Y30.074
X39.070 Y29.893
X39.209 Y29.737
X39.378 Y29.615
X39.569 Y29.530
X39.774 Y29.486
X39.982 Y29.486
X40.187 Y29.530
X40.378 Y29.615
X40.547 Y29.737
X40.687 Y29.893
X40.791 Y30.074
X40.855 Y30.272
X40.877 Y30.480
X40.855 Y30.688
X40.791 Y30.886
X40.687 Y31.067
X40.547 Y31.223
X40.378 Y31.346
X40.187 Y31.431
X39.982 Y31.474
X39.774 Y31.474
X39.569 Y31.431
X39.378 Y31.346
X39.209 Y31.223
X39.070 Y31.067
X38.965 Y30.886
X38.925 Y30.765
X38.886 Y30.886
X38.782 Y31.067
X38.642 Y31.223
X38.473 Y31.346
X38.282 Y31.431
X38.077 Y31.474
X37.869 Y31.474
X37.664 Y31.431
X37.473 Y31.346
X37.304 Y31.223
X37.165 Y31.067
X37.060 Y30.886
X37.020 Y30.765
X36.981 Y30.886
X36.877 Y31.067
X36.737 Y31.223
X36.568 Y31.346
X36.377 Y31.431
X36.172 Y31.474
X35.964 Y31.474
X35.759 Y31.431
X35.568 Y31.346
X35.399 Y31.223
X35.260 Y31.067
X35.155 Y30.886
X35.116 Y30.765
X35.076 Y30.886
X34.971 Y31.067
X34.832 Y31.223
X34.663 Y31.346
X34.472 Y31.431
X34.267 Y31.474
X34.059 Y31.474
X33.854 Y31.431
X33.663 Y31.346
X33.494 Y31.223
X33.355 Y31.067
X33.250 Y30.886
X33.211 Y30.765
X33.171 Y30.886
X33.067 Y31.067
X32.927 Y31.223
X32.758 Y31.346
X32.567 Y31.431
X32.362 Y31.474
X32.154 Y31.474
X31.949 Y31.431
X31.758 Y31.346
X31.589 Y31.223
X31.450 Y31.067
X31.369 Y30.928
X31.289 Y31.067
X31.149 Y31.223
X30.980 Y31.346
X30.789 Y31.431
X30.584 Y31.474
X30.376 Y31.474
G0 Z3.000
G0  X50.037 Y33.729
G0  Z3.000
G01 F400 Z0
G01 F400 Z-0.100
G01F400X49.787 Y33.676
X49.553 Y33.572
X49.358 Y33.431
X48.554 Y32.626
X48.413 Y32.469
X48.285 Y32.248
X48.206 Y32.005
X48.182 Y31.780
X48.182 Y31.488
X48.110 Y31.540
X47.876 Y31.644
X47.626 Y31.697
X47.370 Y31.697
X47.120 Y31.644
X46.886 Y31.540
X46.679 Y31.390
X46.546 Y31.241
X46.412 Y31.390
X46.205 Y31.540
X45.971 Y31.644
X45.721 Y31.697
X45.465 Y31.697
X45.215 Y31.644
X44.981 Y31.540
X44.774 Y31.390
X44.641 Y31.241
X44.507 Y31.390
X44.300 Y31.540
X44.066 Y31.644
X43.816 Y31.697
X43.560 Y31.697
X43.310 Y31.644
X43.076 Y31.540
X42.869 Y31.390
X42.799 Y31.312
X42.729 Y31.390
X42.522 Y31.540
X42.288 Y31.644
X42.038 Y31.697
X41.782 Y31.697
X41.532 Y31.644
X41.298 Y31.540
X41.091 Y31.390
X40.920 Y31.199
X40.894 Y31.155
X40.868 Y31.199
X40.697 Y31.390
X40.490 Y31.540
X40.256 Y31.644
X40.006 Y31.697
X39.750 Y31.697
X39.500 Y31.644
X39.266 Y31.540
X39.059 Y31.390
X38.925 Y31.241
X38.792 Y31.390
X38.585 Y31.540
X38.351 Y31.644
X38.101 Y31.697
X37.845 Y31.697
X37.595 Y31.644
X37.361 Y31.540
X37.154 Y31.390
X37.020 Y31.241
X36.887 Y31.390
X36.680 Y31.540
X36.446 Y31.644
X36.196 Y31.697
X35.940 Y31.697
X35.690 Y31.644
X35.456 Y31.540
X35.249 Y31.390
X35.116 Y31.241
X34.982 Y31.390
X34.775 Y31.540
X34.541 Y31.644
X34.291 Y31.697
X34.035 Y31.697
X33.785 Y31.644
X33.551 Y31.540
X33.344 Y31.390
X33.211 Y31.241
X33.077 Y31.390
X32.870 Y31.540
X32.636 Y31.644
X32.386 Y31.697
X32.130 Y31.697
X31.880 Y31.644
X31.646 Y31.540
X31.439 Y31.390
X31.369 Y31.312
X31.299 Y31.390
X31.092 Y31.540
X30.858 Y31.644
X30.608 Y31.697
X30.352 Y31.697
X30.102 Y31.644
X29.868 Y31.540
X29.661 Y31.390
X29.490 Y31.199
X29.362 Y30.978
X29.283 Y30.735
X29.256 Y30.480
X29.283 Y30.226
X29.362 Y29.982
X29.490 Y29.761
X29.661 Y29.570
X29.868 Y29.420
X30.102 Y29.316
X30.352 Y29.263
X30.608 Y29.263
X30.858 Y29.316
X31.092 Y29.420
X31.299 Y29.570
X31.369 Y29.648
X31.439 Y29.570
X31.646 Y29.420
X31.880 Y29.316
X32.130 Y29.263
X32.386 Y29.263
X32.636 Y29.316
X32.870 Y29.420
X33.077 Y29.570
X33.211 Y29.719
X33.344 Y29.570
X33.551 Y29.420
X33.785 Y29.316
X34.035 Y29.263
X34.291 Y29.263
X34.541 Y29.316
X34.775 Y29.420
X34.982 Y29.570
X35.116 Y29.719
X35.249 Y29.570
X35.456 Y29.420
X35.690 Y29.316
X35.940 Y29.263
X36.196 Y29.263
X36.446 Y29.316
X36.680 Y29.420
X36.887 Y29.570
X37.020 Y29.719
X37.154 Y29.570
X37.361 Y29.420
X37.595 Y29.316
X37.845 Y29.263
X38.101 Y29.263
X38.351 Y29.316
X38.585 Y29.420
X38.792 Y29.570
X38.925 Y29.719
X39.059 Y29.570
X39.266 Y29.420
X39.500 Y29.316
X39.750 Y29.263
X40.006 Y29.263
X40.256 Y29.316
X40.490 Y29.420
X40.697 Y29.570
X40.868 Y29.761
X40.894 Y29.805
X40.920 Y29.761
X41.091 Y29.570
X41.298 Y29.420
X41.532 Y29.316
X41.782 Y29.263
X42.038 Y29.263
X42.288 Y29.316
X42.522 Y29.420
X42.729 Y29.570
X42.799 Y29.648
X42.869 Y29.570
X43.076 Y29.420
X43.310 Y29.316
X43.560 Y29.263
X43.816 Y29.263
X44.066 Y29.316
X44.300 Y29.420
X44.507 Y29.570
X44.641 Y29.719
X44.774 Y29.570
X44.981 Y29.420
X45.215 Y29.316
X45.465 Y29.263
X45.721 Y29.263
X45.971 Y29.316
X46.205 Y29.420
X46.412 Y29.570
X46.546 Y29.719
X46.679 Y29.570
X46.886 Y29.420
X47.120 Y29.316
X47.370 Y29.263
X47.626 Y29.263
X47.876 Y29.316
X48.110 Y29.420
X48.317 Y29.570
X48.451 Y29.719
X48.584 Y29.570
X48.791 Y29.420
X49.025 Y29.316
X49.275 Y29.263
X49.531 Y29.263
X49.781 Y29.316
X50.015 Y29.420
X50.222 Y29.570
X50.355 Y29.719
X50.489 Y29.570
X50.696 Y29.420
X50.930 Y29.316
X51.180 Y29.263
X51.436 Y29.263
X51.686 Y29.316
X51.920 Y29.420
X52.127 Y29.570
X52.298 Y29.761
X52.324 Y29.805
X52.350 Y29.761
X52.521 Y29.570
X52.728 Y29.420
X52.962 Y29.316
X53.212 Y29.263
X53.468 Y29.263
X53.718 Y29.316
X53.952 Y29.420
X54.147 Y29.562
X55.967 Y31.382
X56.108 Y31.539
X56.236 Y31.760
X56.315 Y32.004
X56.339 Y32.228
X56.339 Y32.415
X56.315 Y32.639
X56.236 Y32.883
X56.108 Y33.104
X55.937 Y33.295
X55.730 Y33.445
X55.496 Y33.549
X55.246 Y33.602
X54.990 Y33.602
X54.740 Y33.549
X54.506 Y33.445
X54.299 Y33.295
X54.128 Y33.104
X54.000 Y32.883
X53.991 Y32.856
X53.787 Y32.652
X53.775 Y32.767
X53.696 Y33.010
X53.568 Y33.231
X53.397 Y33.422
X53.190 Y33.572
X52.956 Y33.676
X52.706 Y33.729
X52.450 Y33.729
X52.200 Y33.676
X51.966 Y33.572
X51.771 Y33.431
X51.300 Y32.959
X51.283 Y33.010
X51.155 Y33.231
X50.984 Y33.422
X50.777 Y33.572
X50.543 Y33.676
X50.293 Y33.729
X50.037 Y33.729
G0 Z3.000
G0  X58.800 Y33.602
G0  Z3.000
G01 F400 Z0
G01 F400 Z-0.100
G01F400X58.550 Y33.549
X58.316 Y33.445
X58.109 Y33.295
X57.938 Y33.104
X57.810 Y32.883
X57.731 Y32.639
X57.707 Y32.415
X57.707 Y30.450
X57.731 Y30.226
X57.810 Y29.982
X57.938 Y29.761
X58.109 Y29.570
X58.316 Y29.420
X58.550 Y29.316
X58.800 Y29.263
X59.056 Y29.263
X59.306 Y29.316
X59.540 Y29.420
X59.747 Y29.570
X59.881 Y29.719
X60.014 Y29.570
X60.221 Y29.420
X60.455 Y29.316
X60.705 Y29.263
X60.961 Y29.263
X61.211 Y29.316
X61.445 Y29.420
X61.652 Y29.570
X61.786 Y29.719
X61.919 Y29.570
X62.126 Y29.420
X62.360 Y29.316
X62.610 Y29.263
X62.866 Y29.263
X63.116 Y29.316
X63.350 Y29.420
X63.557 Y29.570
X63.728 Y29.761
X63.856 Y29.982
X63.935 Y30.226
X63.959 Y30.450
X63.959 Y32.415
X63.935 Y32.639
X63.856 Y32.883
X63.728 Y33.104
X63.557 Y33.295
X63.350 Y33.445
X63.116 Y33.549
X62.866 Y33.602
X62.610 Y33.602
X62.360 Y33.549
X62.126 Y33.445
X61.919 Y33.295
X61.786 Y33.146
X61.652 Y33.295
X61.445 Y33.445
X61.211 Y33.549
X60.961 Y33.602
X60.705 Y33.602
X60.455 Y33.549
X60.221 Y33.445
X60.014 Y33.295
X59.881 Y33.146
X59.747 Y33.295
X59.540 Y33.445
X59.306 Y33.549
X59.056 Y33.602
X58.800 Y33.602
G0 Z3.000
M05
(  )
( Drilling )
M03 S10000
G00 X62.738 Y30.480
G0  Z3.000
G01 F240.0 Z-1.780
G00 Z3.000
G00 X60.833 Y30.480
G0  Z3.000
G01 F240.0 Z-1.780
G00 Z3.000
G00 X58.928 Y30.480
G0  Z3.000
G01 F240.0 Z-1.780
G00 Z3.000
G00 X53.340 Y30.480
G0  Z3.000
G01 F240.0 Z-1.780
G00 Z3.000
G00 X51.308 Y30.480
G0  Z3.000
G01 F240.0 Z-1.780
G00 Z3.000
G00 X49.403 Y30.480
G0  Z3.000
G01 F240.0 Z-1.780
G00 Z3.000
G00 X47.498 Y30.480
G0  Z3.000
G01 F240.0 Z-1.780
G00 Z3.000
G00 X45.593 Y30.480
G0  Z3.000
G01 F240.0 Z-1.780
G00 Z3.000
G00 X43.688 Y30.480
G0  Z3.000
G01 F240.0 Z-1.780
G00 Z3.000
G00 X41.910 Y30.480
G0  Z3.000
G01 F240.0 Z-1.780
G00 Z3.000
G00 X39.878 Y30.480
G0  Z3.000
G01 F240.0 Z-1.780
G00 Z3.000
G00 X37.973 Y30.480
G0  Z3.000
G01 F240.0 Z-1.780
G00 Z3.000
G00 X36.068 Y30.480
G0  Z3.000
G01 F240.0 Z-1.780
G00 Z3.000
G00 X34.163 Y30.480
G0  Z3.000
G01 F240.0 Z-1.780
G00 Z3.000
G00 X32.258 Y30.480
G0  Z3.000
G01 F240.0 Z-1.780
G00 Z3.000
G00 X30.480 Y30.480
G0  Z3.000
G01 F240.0 Z-1.780
G00 Z3.000
M05
(  )
( Rubout )
M03 S10000
G0  X26.194 Y34.596
G0  Z3.000
G01 F400 Z0
G01 F400 Z-0.100
G01F400X26.194 Y34.525
X64.606 Y34.525
X64.606 Y34.596
X26.194 Y34.596
G0 Z3.000
G0  X26.194 Y33.335
G0  Z3.000
G01 F400 Z0
G01 F400 Z-0.100
G01F400X26.194 Y32.145
X48.017 Y32.145
X48.080 Y32.339
X48.232 Y32.601
X48.392 Y32.779
X48.948 Y33.335
X26.194 Y33.335
G0 Z3.000
G0  X53.766 Y33.335
G0  Z3.000
G01 F400 Z0
G01 F400 Z-0.100
G01F400X53.885 Y33.129
X53.947 Y33.236
X54.036 Y33.335
X53.766 Y33.335
G0 Z3.000
G0  X56.200 Y33.335
G0  Z3.000
G01 F400 Z0
G01 F400 Z-0.100
G01F400X56.289 Y33.236
X56.441 Y32.974
X56.534 Y32.686
X56.562 Y32.427
X56.562 Y32.216
X56.554 Y32.145
X57.485 Y32.145
X57.485 Y32.427
X57.512 Y32.686
X57.605 Y32.974
X57.757 Y33.236
X57.846 Y33.335
X56.200 Y33.335
G0 Z3.000
G0  X63.820 Y33.335
G0  Z3.000
G01 F400 Z0
G01 F400 Z-0.100
G01F400X63.909 Y33.236
X64.061 Y32.974
X64.154 Y32.686
X64.181 Y32.427
X64.181 Y32.145
X64.606 Y32.145
X64.606 Y33.335
X63.820 Y33.335
G0 Z3.000
G0  X26.194 Y30.955
G0  Z3.000
G01 F400 Z0
G01 F400 Z-0.100
G01F400X26.194 Y29.764
X29.231 Y29.764
X29.157 Y29.891
X29.064 Y30.179
X29.032 Y30.480
X29.064 Y30.781
X29.120 Y30.955
X26.194 Y30.955
G0 Z3.000
G0  X55.855 Y30.955
G0  Z3.000
G01 F400 Z0
G01 F400 Z-0.100
G01F400X54.664 Y29.764
X57.678 Y29.764
X57.605 Y29.891
X57.512 Y30.179
X57.485 Y30.438
X57.485 Y30.955
X55.855 Y30.955
G0 Z3.000
G0  X64.181 Y30.955
G0  Z3.000
G01 F400 Z0
G01 F400 Z-0.100
G01F400X64.181 Y30.438
X64.154 Y30.179
X64.061 Y29.891
X63.988 Y29.764
X64.606 Y29.764
X64.606 Y30.955
X64.181 Y30.955
G0 Z3.000
G0  X26.194 Y28.574
G0  Z3.000
G01 F400 Z0
G01 F400 Z-0.100
G01F400X26.194 Y27.384
X64.606 Y27.384
X64.606 Y28.574
X26.194 Y28.574
G0 Z3.000
G0  X26.194 Y34.607
G0  Z3.000
G01 F400 Z0
G01 F400 Z-0.100
G01F400X26.194 Y26.194
X64.606 Y26.194
X64.606 Y34.607
X26.194 Y34.607
G0 Z3.000
G0  X50.014 Y33.952
G0  Z3.000
G01 F400 Z0
G01 F400 Z-0.100
G01F400X50.316 Y33.952
X50.612 Y33.889
X50.889 Y33.766
X51.134 Y33.588
X51.336 Y33.363
X51.356 Y33.330
X51.626 Y33.600
X51.854 Y33.766
X52.131 Y33.889
X52.427 Y33.952
X52.729 Y33.952
X53.025 Y33.889
X53.302 Y33.766
X53.547 Y33.588
X53.749 Y33.363
X53.885 Y33.129
X53.947 Y33.236
X54.149 Y33.461
X54.394 Y33.639
X54.671 Y33.762
X54.967 Y33.825
X55.269 Y33.825
X55.565 Y33.762
X55.842 Y33.639
X56.087 Y33.461
X56.289 Y33.236
X56.441 Y32.974
X56.534 Y32.686
X56.562 Y32.427
X56.562 Y32.216
X56.534 Y31.957
X56.441 Y31.669
X56.289 Y31.407
X56.129 Y31.229
X54.292 Y29.392
X54.064 Y29.226
X53.787 Y29.103
X53.491 Y29.040
X53.189 Y29.040
X52.893 Y29.103
X52.616 Y29.226
X52.371 Y29.404
X52.324 Y29.456
X52.277 Y29.404
X52.032 Y29.226
X51.755 Y29.103
X51.459 Y29.040
X51.157 Y29.040
X50.861 Y29.103
X50.584 Y29.226
X50.355 Y29.392
X50.127 Y29.226
X49.850 Y29.103
X49.554 Y29.040
X49.252 Y29.040
X48.956 Y29.103
X48.679 Y29.226
X48.451 Y29.392
X48.222 Y29.226
X47.945 Y29.103
X47.649 Y29.040
X47.347 Y29.040
X47.051 Y29.103
X46.774 Y29.226
X46.546 Y29.392
X46.317 Y29.226
X46.040 Y29.103
X45.744 Y29.040
X45.442 Y29.040
X45.146 Y29.103
X44.869 Y29.226
X44.641 Y29.392
X44.412 Y29.226
X44.135 Y29.103
X43.839 Y29.040
X43.537 Y29.040
X43.241 Y29.103
X42.964 Y29.226
X42.799 Y29.346
X42.634 Y29.226
X42.357 Y29.103
X42.061 Y29.040
X41.759 Y29.040
X41.463 Y29.103
X41.186 Y29.226
X40.941 Y29.404
X40.894 Y29.456
X40.847 Y29.404
X40.602 Y29.226
X40.325 Y29.103
X40.029 Y29.040
X39.727 Y29.040
X39.431 Y29.103
X39.154 Y29.226
X38.925 Y29.392
X38.697 Y29.226
X38.420 Y29.103
X38.124 Y29.040
X37.822 Y29.040
X37.526 Y29.103
X37.249 Y29.226
X37.020 Y29.392
X36.792 Y29.226
X36.515 Y29.103
X36.219 Y29.040
X35.917 Y29.040
X35.621 Y29.103
X35.344 Y29.226
X35.116 Y29.392
X34.887 Y29.226
X34.610 Y29.103
X34.314 Y29.040
X34.012 Y29.040
X33.716 Y29.103
X33.439 Y29.226
X33.211 Y29.392
X32.982 Y29.226
X32.705 Y29.103
X32.409 Y29.040
X32.107 Y29.040
X31.811 Y29.103
X31.534 Y29.226
X31.369 Y29.346
X31.204 Y29.226
X30.927 Y29.103
X30.631 Y29.040
X30.329 Y29.040
X30.033 Y29.103
X29.756 Y29.226
X29.511 Y29.404
X29.309 Y29.629
X29.157 Y29.891
X29.064 Y30.179
X29.032 Y30.480
X29.064 Y30.781
X29.157 Y31.069
X29.309 Y31.331
X29.511 Y31.556
X29.756 Y31.734
X30.033 Y31.857
X30.329 Y31.920
X30.631 Y31.920
X30.927 Y31.857
X31.204 Y31.734
X31.369 Y31.614
X31.534 Y31.734
X31.811 Y31.857
X32.107 Y31.920
X32.409 Y31.920
X32.705 Y31.857
X32.982 Y31.734
X33.211 Y31.568
X33.439 Y31.734
X33.716 Y31.857
X34.012 Y31.920
X34.314 Y31.920
X34.610 Y31.857
X34.887 Y31.734
X35.116 Y31.568
X35.344 Y31.734
X35.621 Y31.857
X35.917 Y31.920
X36.219 Y31.920
X36.515 Y31.857
X36.792 Y31.734
X37.020 Y31.568
X37.249 Y31.734
X37.526 Y31.857
X37.822 Y31.920
X38.124 Y31.920
X38.420 Y31.857
X38.697 Y31.734
X38.925 Y31.568
X39.154 Y31.734
X39.431 Y31.857
X39.727 Y31.920
X40.029 Y31.920
X40.325 Y31.857
X40.602 Y31.734
X40.847 Y31.556
X40.894 Y31.504
X40.941 Y31.556
X41.186 Y31.734
X41.463 Y31.857
X41.759 Y31.920
X42.061 Y31.920
X42.357 Y31.857
X42.634 Y31.734
X42.799 Y31.614
X42.964 Y31.734
X43.241 Y31.857
X43.537 Y31.920
X43.839 Y31.920
X44.135 Y31.857
X44.412 Y31.734
X44.641 Y31.568
X44.869 Y31.734
X45.146 Y31.857
X45.442 Y31.920
X45.744 Y31.920
X46.040 Y31.857
X46.317 Y31.734
X46.546 Y31.568
X46.774 Y31.734
X47.051 Y31.857
X47.347 Y31.920
X47.649 Y31.920
X47.945 Y31.857
X47.987 Y32.051
X48.080 Y32.339
X48.232 Y32.601
X48.392 Y32.779
X49.213 Y33.600
X49.441 Y33.766
X49.718 Y33.889
X50.014 Y33.952
G0 Z3.000
G0  X58.777 Y33.825
G0  Z3.000
G01 F400 Z0
G01 F400 Z-0.100
G01F400X59.079 Y33.825
X59.375 Y33.762
X59.652 Y33.639
X59.881 Y33.473
X60.109 Y33.639
X60.386 Y33.762
X60.682 Y33.825
X60.984 Y33.825
X61.280 Y33.762
X61.557 Y33.639
X61.786 Y33.473
X62.014 Y33.639
X62.291 Y33.762
X62.587 Y33.825
X62.889 Y33.825
X63.185 Y33.762
X63.462 Y33.639
X63.707 Y33.461
X63.909 Y33.236
X64.061 Y32.974
X64.154 Y32.686
X64.181 Y32.427
X64.181 Y30.438
X64.154 Y30.179
X64.061 Y29.891
X63.909 Y29.629
X63.707 Y29.404
X63.462 Y29.226
X63.185 Y29.103
X62.889 Y29.040
X62.587 Y29.040
X62.291 Y29.103
X62.014 Y29.226
X61.786 Y29.392
X61.557 Y29.226
X61.280 Y29.103
X60.984 Y29.040
X60.682 Y29.040
X60.386 Y29.103
X60.109 Y29.226
X59.881 Y29.392
X59.652 Y29.226
X59.375 Y29.103
X59.079 Y29.040
X58.777 Y29.040
X58.481 Y29.103
X58.204 Y29.226
X57.959 Y29.404
X57.757 Y29.629
X57.605 Y29.891
X57.512 Y30.179
X57.485 Y30.438
X57.485 Y32.427
X57.512 Y32.686
X57.605 Y32.974
X57.757 Y33.236
X57.959 Y33.461
X58.204 Y33.639
X58.481 Y33.762
X58.777 Y33.825
G0 Z3.000
( Routing )
M03 S10000
G0  X24.607 Y36.194
G0  Z3.000
G01 F200 Z0
G01 F200 Z-0.790
X24.607 Y24.607
X66.194 Y24.607
X66.194 Y36.194
X24.607 Y36.194
G0 Z3.000
M03 S10000
G0  X24.607 Y36.194
G0  Z3.000
G01 F200 Z0
G01 F200 Z-1.580
X24.607 Y24.607
X66.194 Y24.607
X66.194 Y36.194
X24.607 Y36.194
G0 Z3.000
G00 Z3.000
M05
M30
%