( Generated by Carbide Copper )
( Material Size )
( X= 152.400, Y= 101.600, Z= 1.580 )
()
G17
G21
G54
G90
M05
( Rubout )
M03 S10000
G0  X26.194 Y34.596
G0  Z3.000
G01 F400 Z0
G01 F400 Z-0.100
G01F400X26.194 Y34.525
X64.606 Y34.525
X64.606 Y34.596
X26.194 Y34.596
G0 Z3.000
G0  X26.194 Y33.335
G0  Z3.000
G01 F400 Z0
G01 F400 Z-0.100
G01F400X26.194 Y32.145
X48.017 Y32.145
X48.080 Y32.339
X48.232 Y32.601
X48.392 Y32.779
X48.948 Y33.335
X26.194 Y33.335
G0 Z3.000
G0  X53.766 Y33.335
G0  Z3.000
G01 F400 Z0
G01 F400 Z-0.100
G01F400X53.885 Y33.129
X53.947 Y33.236
X54.036 Y33.335
X53.766 Y33.335
G0 Z3.000
G0  X56.200 Y33.335
G0  Z3.000
G01 F400 Z0
G01 F400 Z-0.100
G01F400X56.289 Y33.236
X56.441 Y32.974
X56.534 Y32.686
X56.562 Y32.427
X56.562 Y32.216
X56.554 Y32.145
X57.485 Y32.145
X57.485 Y32.427
X57.512 Y32.686
X57.605 Y32.974
X57.757 Y33.236
X57.846 Y33.335
X56.200 Y33.335
G0 Z3.000
G0  X63.820 Y33.335
G0  Z3.000
G01 F400 Z0
G01 F400 Z-0.100
G01F400X63.909 Y33.236
X64.061 Y32.974
X64.154 Y32.686
X64.181 Y32.427
X64.181 Y32.145
X64.606 Y32.145
X64.606 Y33.335
X63.820 Y33.335
G0 Z3.000
G0  X26.194 Y30.955
G0  Z3.000
G01 F400 Z0
G01 F400 Z-0.100
G01F400X26.194 Y29.764
X29.231 Y29.764
X29.157 Y29.891
X29.064 Y30.179
X29.032 Y30.480
X29.064 Y30.781
X29.120 Y30.955
X26.194 Y30.955
G0 Z3.000
G0  X55.855 Y30.955
G0  Z3.000
G01 F400 Z0
G01 F400 Z-0.100
G01F400X54.664 Y29.764
X57.678 Y29.764
X57.605 Y29.891
X57.512 Y30.179
X57.485 Y30.438
X57.485 Y30.955
X55.855 Y30.955
G0 Z3.000
G0  X64.181 Y30.955
G0  Z3.000
G01 F400 Z0
G01 F400 Z-0.100
G01F400X64.181 Y30.438
X64.154 Y30.179
X64.061 Y29.891
X63.988 Y29.764
X64.606 Y29.764
X64.606 Y30.955
X64.181 Y30.955
G0 Z3.000
G0  X26.194 Y28.574
G0  Z3.000
G01 F400 Z0
G01 F400 Z-0.100
G01F400X26.194 Y27.384
X64.606 Y27.384
X64.606 Y28.574
X26.194 Y28.574
G0 Z3.000
G0  X26.194 Y34.607
G0  Z3.000
G01 F400 Z0
G01 F400 Z-0.100
G01F400X26.194 Y26.194
X64.606 Y26.194
X64.606 Y34.607
X26.194 Y34.607
G0 Z3.000
G0  X50.014 Y33.952
G0  Z3.000
G01 F400 Z0
G01 F400 Z-0.100
G01F400X50.316 Y33.952
X50.612 Y33.889
X50.889 Y33.766
X51.134 Y33.588
X51.336 Y33.363
X51.356 Y33.330
X51.626 Y33.600
X51.854 Y33.766
X52.131 Y33.889
X52.427 Y33.952
X52.729 Y33.952
X53.025 Y33.889
X53.302 Y33.766
X53.547 Y33.588
X53.749 Y33.363
X53.885 Y33.129
X53.947 Y33.236
X54.149 Y33.461
X54.394 Y33.639
X54.671 Y33.762
X54.967 Y33.825
X55.269 Y33.825
X55.565 Y33.762
X55.842 Y33.639
X56.087 Y33.461
X56.289 Y33.236
X56.441 Y32.974
X56.534 Y32.686
X56.562 Y32.427
X56.562 Y32.216
X56.534 Y31.957
X56.441 Y31.669
X56.289 Y31.407
X56.129 Y31.229
X54.292 Y29.392
X54.064 Y29.226
X53.787 Y29.103
X53.491 Y29.040
X53.189 Y29.040
X52.893 Y29.103
X52.616 Y29.226
X52.371 Y29.404
X52.324 Y29.456
X52.277 Y29.404
X52.032 Y29.226
X51.755 Y29.103
X51.459 Y29.040
X51.157 Y29.040
X50.861 Y29.103
X50.584 Y29.226
X50.355 Y29.392
X50.127 Y29.226
X49.850 Y29.103
X49.554 Y29.040
X49.252 Y29.040
X48.956 Y29.103
X48.679 Y29.226
X48.451 Y29.392
X48.222 Y29.226
X47.945 Y29.103
X47.649 Y29.040
X47.347 Y29.040
X47.051 Y29.103
X46.774 Y29.226
X46.546 Y29.392
X46.317 Y29.226
X46.040 Y29.103
X45.744 Y29.040
X45.442 Y29.040
X45.146 Y29.103
X44.869 Y29.226
X44.641 Y29.392
X44.412 Y29.226
X44.135 Y29.103
X43.839 Y29.040
X43.537 Y29.040
X43.241 Y29.103
X42.964 Y29.226
X42.799 Y29.346
X42.634 Y29.226
X42.357 Y29.103
X42.061 Y29.040
X41.759 Y29.040
X41.463 Y29.103
X41.186 Y29.226
X40.941 Y29.404
X40.894 Y29.456
X40.847 Y29.404
X40.602 Y29.226
X40.325 Y29.103
X40.029 Y29.040
X39.727 Y29.040
X39.431 Y29.103
X39.154 Y29.226
X38.925 Y29.392
X38.697 Y29.226
X38.420 Y29.103
X38.124 Y29.040
X37.822 Y29.040
X37.526 Y29.103
X37.249 Y29.226
X37.020 Y29.392
X36.792 Y29.226
X36.515 Y29.103
X36.219 Y29.040
X35.917 Y29.040
X35.621 Y29.103
X35.344 Y29.226
X35.116 Y29.392
X34.887 Y29.226
X34.610 Y29.103
X34.314 Y29.040
X34.012 Y29.040
X33.716 Y29.103
X33.439 Y29.226
X33.211 Y29.392
X32.982 Y29.226
X32.705 Y29.103
X32.409 Y29.040
X32.107 Y29.040
X31.811 Y29.103
X31.534 Y29.226
X31.369 Y29.346
X31.204 Y29.226
X30.927 Y29.103
X30.631 Y29.040
X30.329 Y29.040
X30.033 Y29.103
X29.756 Y29.226
X29.511 Y29.404
X29.309 Y29.629
X29.157 Y29.891
X29.064 Y30.179
X29.032 Y30.480
X29.064 Y30.781
X29.157 Y31.069
X29.309 Y31.331
X29.511 Y31.556
X29.756 Y31.734
X30.033 Y31.857
X30.329 Y31.920
X30.631 Y31.920
X30.927 Y31.857
X31.204 Y31.734
X31.369 Y31.614
X31.534 Y31.734
X31.811 Y31.857
X32.107 Y31.920
X32.409 Y31.920
X32.705 Y31.857
X32.982 Y31.734
X33.211 Y31.568
X33.439 Y31.734
X33.716 Y31.857
X34.012 Y31.920
X34.314 Y31.920
X34.610 Y31.857
X34.887 Y31.734
X35.116 Y31.568
X35.344 Y31.734
X35.621 Y31.857
X35.917 Y31.920
X36.219 Y31.920
X36.515 Y31.857
X36.792 Y31.734
X37.020 Y31.568
X37.249 Y31.734
X37.526 Y31.857
X37.822 Y31.920
X38.124 Y31.920
X38.420 Y31.857
X38.697 Y31.734
X38.925 Y31.568
X39.154 Y31.734
X39.431 Y31.857
X39.727 Y31.920
X40.029 Y31.920
X40.325 Y31.857
X40.602 Y31.734
X40.847 Y31.556
X40.894 Y31.504
X40.941 Y31.556
X41.186 Y31.734
X41.463 Y31.857
X41.759 Y31.920
X42.061 Y31.920
X42.357 Y31.857
X42.634 Y31.734
X42.799 Y31.614
X42.964 Y31.734
X43.241 Y31.857
X43.537 Y31.920
X43.839 Y31.920
X44.135 Y31.857
X44.412 Y31.734
X44.641 Y31.568
X44.869 Y31.734
X45.146 Y31.857
X45.442 Y31.920
X45.744 Y31.920
X46.040 Y31.857
X46.317 Y31.734
X46.546 Y31.568
X46.774 Y31.734
X47.051 Y31.857
X47.347 Y31.920
X47.649 Y31.920
X47.945 Y31.857
X47.987 Y32.051
X48.080 Y32.339
X48.232 Y32.601
X48.392 Y32.779
X49.213 Y33.600
X49.441 Y33.766
X49.718 Y33.889
X50.014 Y33.952
G0 Z3.000
G0  X58.777 Y33.825
G0  Z3.000
G01 F400 Z0
G01 F400 Z-0.100
G01F400X59.079 Y33.825
X59.375 Y33.762
X59.652 Y33.639
X59.881 Y33.473
X60.109 Y33.639
X60.386 Y33.762
X60.682 Y33.825
X60.984 Y33.825
X61.280 Y33.762
X61.557 Y33.639
X61.786 Y33.473
X62.014 Y33.639
X62.291 Y33.762
X62.587 Y33.825
X62.889 Y33.825
X63.185 Y33.762
X63.462 Y33.639
X63.707 Y33.461
X63.909 Y33.236
X64.061 Y32.974
X64.154 Y32.686
X64.181 Y32.427
X64.181 Y30.438
X64.154 Y30.179
X64.061 Y29.891
X63.909 Y29.629
X63.707 Y29.404
X63.462 Y29.226
X63.185 Y29.103
X62.889 Y29.040
X62.587 Y29.040
X62.291 Y29.103
X62.014 Y29.226
X61.786 Y29.392
X61.557 Y29.226
X61.280 Y29.103
X60.984 Y29.040
X60.682 Y29.040
X60.386 Y29.103
X60.109 Y29.226
X59.881 Y29.392
X59.652 Y29.226
X59.375 Y29.103
X59.079 Y29.040
X58.777 Y29.040
X58.481 Y29.103
X58.204 Y29.226
X57.959 Y29.404
X57.757 Y29.629
X57.605 Y29.891
X57.512 Y30.179
X57.485 Y30.438
X57.485 Y32.427
X57.512 Y32.686
X57.605 Y32.974
X57.757 Y33.236
X57.959 Y33.461
X58.204 Y33.639
X58.481 Y33.762
X58.777 Y33.825
G0 Z3.000
M30